X:1
T:Ayelevi
T:Ayelevi
T:Ghana
T:trad.
C:trad.
%%score [ 1 2 ]
L:1/8
Q:1/2=80
M:2/2
K:C
V:1 treble nm="Stemmer"
V:2 treble nm="Stemmer"
V:1
|:"^solo" G2 | c2 c2 c2 A2 | B2 B2 G2 E2 | A3 F3 A2 | G2 G2 z4 |"^kor" (A8 | G4) E2 E2 | F3 F3 D2 | %8
w: A-|ye- le- vi me|ku- lo mi- do|pa- pa A-|ye- le!|A|_ mi- do|pa- pa A-|
 E2 E2 z2 :| %9
w: ye- le.|
V:2
|: z2 | z8 | z8 | z8 | z8 | ((F8 | E4)) C2 C2 | D3 D3 B,2 | C2 C2 z2 :| %9
w: |||||A|_ mi- do|pa- pa A-|ye- le.|

